X:595
T: Mary's Dream
T: Aisling Mh\'aire
S: B.Breathnach:"Ceol Rince na hEireann" IV/120
Z: B.Black
L: 1/8
M: 4/4
R: reel
K: D
A|d2 fd gece|d2 fd g2 fg|afge dBAB|dgfe d3 :|
f|eAAB cdef|gfef g2 fg|eAAB cdeg|fdec d3 :|
